bundles/org.openhab.ui.iconset.classic/icons/battery-10.svg

<?xml version="1.0"?>
<svg xmlns="http://www.w3.org/2000/svg" viewBox="0 0 64 64" style="enable-background:new 0 0 64 64">
  <path d="m57 39.5c-.3 0-.5-.2-.5-.5v-14c0-.3.2-.5.5-.5h5c.8 0 1.5.7 1.5 1.5v12c0 .8-.7 1.5-1.5 1.5h-5" style="fill:#bebec8"/>
  <path d="m62 25c.6 0 1 .4 1 1v12c0 .6-.4 1-1 1h-5v-14h5m0-1h-5c-.6 0-1 .4-1 1v14c0 .6.4 1 1 1h5c1.1 0 2-.9 2-2v-12c0-1.1-.9-2-2-2z" style="fill:#34383f"/>
  <path d="m3 46.5c-1.4 0-2.5-1.1-2.5-2.5v-24c0-1.4 1.1-2.5 2.5-2.5h51c1.4 0 2.5 1.1 2.5 2.5v24c0 1.4-1.1 2.5-2.5 2.5h-51" style="fill:#f0f0f0"/>
  <path d="m54 18c1.1 0 2 .9 2 2v24c0 1.1-.9 2-2 2h-51c-1.1 0-2-.9-2-2v-24c0-1.1.9-2 2-2h51m0-1h-51c-1.7 0-3 1.3-3 3v24c0 1.7 1.3 3 3 3h51c1.7 0 3-1.3 3-3v-24c0-1.7-1.3-3-3-3z" style="fill:#34383f"/>
  <path d="m9 46h-6c-1.1 0-2-.9-2-2v-24c0-1.1.9-2 2-2h6v28" style="fill:#f00014"/>
  <path d="m8 18h1v28h-1z" style="fill:#d6001a"/>
</svg>

<?xml version="1.0" encoding="utf-8"?>
<svg xmlns="http://www.w3.org/2000/svg" xmlns:xlink="http://www.w3.org/1999/xlink" version="1.1" id="Ebene_1" x="0px" y="0px" width="64px" height="64px" viewBox="0 0 64 64" enable-background="new 0 0 64 64" xml:space="preserve">
<g>
	<path fill="#BEBEC8" d="M57,39.5c-0.3,0-0.5-0.2-0.5-0.5V25c0-0.3,0.2-0.5,0.5-0.5h5c0.8,0,1.5,0.7,1.5,1.5v12   c0,0.8-0.7,1.5-1.5,1.5H57z"/>
	<g>
		<path fill="#34383F" d="M62,25c0.6,0,1,0.4,1,1v12c0,0.6-0.4,1-1,1h-5V25H62 M62,24h-5c-0.6,0-1,0.4-1,1v14c0,0.6,0.4,1,1,1h5    c1.1,0,2-0.9,2-2V26C64,24.9,63.1,24,62,24L62,24z"/>
	</g>
</g>
<g>
	<path fill="#F0F0F0" d="M3,46.5c-1.4,0-2.5-1.1-2.5-2.5V20c0-1.4,1.1-2.5,2.5-2.5h51c1.4,0,2.5,1.1,2.5,2.5v24   c0,1.4-1.1,2.5-2.5,2.5H3z"/>
	<g>
		<path fill="#34383F" d="M54,18c1.1,0,2,0.9,2,2v24c0,1.1-0.9,2-2,2H3c-1.1,0-2-0.9-2-2V20c0-1.1,0.9-2,2-2H54 M54,17H3    c-1.7,0-3,1.3-3,3v24c0,1.7,1.3,3,3,3h51c1.7,0,3-1.3,3-3V20C57,18.3,55.7,17,54,17L54,17z"/>
	</g>
</g>
<g>
	<path fill="#F00014" d="M9,46H3c-1.1,0-2-0.9-2-2V20c0-1.1,0.9-2,2-2h6V46z"/>
</g>
<rect x="8" y="18" fill="#D6001A" width="1" height="28"/>
</svg>
